X: 970
T: Texas Gallop
B: jims roots
M:4/4
L:1/8
Q: 1/4=100
K:D
V:1 
"D"DFFA AFFD | "G"GFGA BdBA | "A" Acce eccA | [1 "D"d2[d2f] [d2f][DA][DA] :| [2 cc[d2f][d2f][de][de] ||
|:"D"[d2f][df]d "G"[d2g][dg]d | "D"faf[fd] [f2d][fd][fd] | "A"[A2e][A2a] [Aa][Aa][Aa][Ae] | fgf[Ae] d[Be][Ae][Ae] |
"D"[d2f][df][df] "G"[dg][dg][dg]e | "D"faf[fd] [f2d][fd][fd] | "A"[A2e]aa aaab |[1 aaab aaa[Ae] :|[2 "A"aaab a2 |]
V:DA 
 |:"D"[D2A] FA AFFA | "G"GFGA BdBB | "A"Acce eccA "D"dAdB AGFE |
% abcbook-tune_id 6298c297a4d7662c0e85684f


% abcbook-boost 0
% abcbook-tablature 
% abcbook-transpose 
% abcbook-lastupdated 1654178456107
% abcbook-soundfonts 
% abcbook-repeats 1


